img/heart-dark.svg

<svg width="15" height="15" viewBox="0 0 15 15" fill="none" xmlns="http://www.w3.org/2000/svg">
<path fill-rule="evenodd" clip-rule="evenodd" d="M12.8391 2.96033C12.1701 2.2119 11.2807 1.80005 10.3346 1.80005C9.38831 1.80005 8.59423 2.2119 7.925 2.96033L7.49998 3.63921L7.075 2.96033C6.40597 2.2119 5.61164 1.80005 4.66557 1.80005C3.71953 1.80005 2.82982 2.2119 2.16086 2.96033C0.779712 4.50554 0.779712 7.01968 2.16086 8.56429L7.10991 13.3207C7.19083 13.4116 7.29157 13.4672 7.39682 13.4886C7.43211 13.4964 7.46761 13.5 7.50317 13.5C7.64318 13.5 7.78341 13.4403 7.89004 13.3207L12.8391 8.56429C14.2203 7.01968 14.2203 4.50554 12.8391 2.96033Z" fill="#BCBFC2"/>
</svg>

<svg width="15" height="15" fill="none" xmlns="http://www.w3.org/2000/svg"><path fill-rule="evenodd" clip-rule="evenodd" d="M12.84 2.96c-.67-.748-1.56-1.16-2.505-1.16-.947 0-1.74.412-2.41 1.16l-.425.68-.425-.68c-.669-.748-1.463-1.16-2.41-1.16-.945 0-1.835.412-2.504 1.16C.78 4.506.78 7.02 2.16 8.564l4.949 4.757a.523.523 0 00.393.179c.14 0 .28-.06.387-.18l4.95-4.756c1.38-1.544 1.38-4.058 0-5.604z" fill="#BCBFC2"/></svg>
